X:1
T:E minor Daniel Belknap, 1802
T:Philip Doddridge, 1755, Revised by Jeremy Belknap, 1795 86. 86. (C. M.)
T:Belfast
T:Transcribed from The Village Compilation, 1806.
%%score [ 1 2 3 4 ]
L:1/8
M:4/4
K:G
V:1 treble nm="Treble" snm="Tr."
V:2 treble nm="Counter" snm="C."
V:3 treble-8 nm="Tenor" snm="T."
V:4 bass nm="Bass" snm="B."
V:1
"^2. Ad     –    am,                 in       God's    own   im        –         age  formed,   See  from          his   God     es  –  tranged!""^1. With       flo        –        wing  eyes      and    blee      –      ding  hearts,     A     fal      –      len   world sur   –   vey!" B8 | %1
 (A2 B2 c2) Bc | d6 B2 | (B2 c2 B2) B2 | B6 ^d2 | (e2 B4) c2 | B4 B4 | B8 | %8
"^1. See          the       wide       ru  –  in       sin      has        made,           In        one                   un    –   hap       –       py            day!""^2. And         all         the         joys    of       par  –  a     –     dise              For      guilt                and        hor       –       ror    changed!" B4 GA Bc | %9
 d2 d2 dc B2 | A6 G2 | (G2 B4) e2 | (3(d2 c2 B2) B4 | B8 |] %14
V:2
"^4. But,         O                     my      soul,   with    rap  –  ture            hear        The     se    –    cond  Ad  –  am's   name;""^3. This         fa          –        tal       her   –   i   –   tage      be     –     queath      To       all            his    help – less    race!" E8 | %1
 (E2 D2 E2) G2 | F6 F2 | E4 E4 | ^D6 F2 | (G2 E4) F2 | E4 ^D4 | E8 | %8
"^3. Through this      dark      maze   of      sin       and      woe            Thus       to                     the       grave              we           pass!""^4. And          the       ce     –     les  –  tial   gifts      he      brings          To           all                    his        seed               pro    –   claim." G4 G2 G2 | %9
 F2 F2 F2 G2 | F6 E2 | (E2 G4) E2 | ^D4 D4 | E8 |] %14
V:3
"^6. Praise     to                   his         rich    tran – scen     –      ding   grace      E'en    by            our  fall       we       rise!""^5. What      though          in          mor – tal      life                 they  mourn?  What  though   by   death  they    fall?" B8 | %1
 (c2 B2 A2) G2 | A6 c2 | (B2 A2 BA) G2 | F6 F2 | (G2 B4) A2 | G4 F4 | E8 | %8
"^5. Je     –    sus         in              one    tri – um  –  phant  day              Trans – forms            and          crowns       them        all.""^6. And       gain       for             earthly       Ed   –  en        lost               A            heaven    –    ly             pa      –        ra     –     dise." B4 B2 B2 | %9
 A2 A2 A2 G2 | d6 c2 | (B2 e4) c2 | (3(B2 A2 G2) F4 | E8 |] %14
V:4
 E,8 | E,4 E,4 | D,6 D,2 | E,4 E,4 | B,,6 B,,2 | E,6 ^D,2 | E,4 B,,4 | E,8 | E,4 G,2 G,2 | %9
 D,2 D,2 D,2 D,2 | D,6 E,2 | E,6 E,2 | B,4 B,,4 | E,8 |] %14

